assets/img/icons_pokemon/water.svg

<svg width="256" height="256" viewBox="0 0 256 256" fill="none" xmlns="http://www.w3.org/2000/svg">
<g clip-path="url(#clip0_57_783)">
<path d="M128 256C198.692 256 256 198.692 256 128C256 57.3075 198.692 0 128 0C57.3075 0 0 57.3075 0 128C0 198.692 57.3075 256 128 256Z" fill="#3099E1"/>
<path d="M128.35 206.24C94.1104 206.37 72.2104 173.85 84.5504 141.46C88.7304 130.48 95.3304 120.86 101.35 110.97C110.78 95.47 117.06 78.86 121.26 61.34C121.8 59.09 122.2 56.76 123.14 54.68C124.07 52.61 125.27 50.39 128.16 50.51C130.99 50.63 132 52.92 133.03 54.95C133.77 56.4 134.12 58.07 134.44 59.68C138.9 81.8 148.35 101.74 160.48 120.61C168.25 132.69 174.94 145.19 174.61 160.36C174.04 186.84 154.79 206.15 128.34 206.25L128.35 206.24Z" fill="white"/>
<path d="M129.16 193.51C115.36 192.46 103.59 188.98 96.2403 176.98C94.8903 174.78 93.1103 171.96 94.5303 169.54C96.4103 166.33 99.2603 168.83 101.56 169.62C119.44 175.81 137.26 175.79 155.08 169.35C157.14 168.6 159.41 166.62 161.44 168.92C163.36 171.1 161.49 173.33 160.52 175.31C154 188.7 141.66 191.8 129.17 193.5L129.16 193.51Z" fill="#3A9DE2"/>
</g>
<defs>
<clipPath id="clip0_57_783">
<rect width="256" height="256" fill="white"/>
</clipPath>
</defs>
</svg>

<?xml version="1.0" encoding="UTF-8"?>
<svg id="Layer_1" data-name="Layer 1" xmlns="http://www.w3.org/2000/svg" viewBox="0 0 256 256">
  <defs>
    <style>
      .cls-1 {
        fill: #3a9de2;
      }

      .cls-2 {
        fill: #fff;
      }

      .cls-3 {
        fill: #3099e1;
      }
    </style>
  </defs>
  <circle class="cls-3" cx="128" cy="128" r="128"/>
  <path class="cls-2" d="M128.35,206.24c-34.24,.13-56.14-32.39-43.8-64.78,4.18-10.98,10.78-20.6,16.8-30.49,9.43-15.5,15.71-32.11,19.91-49.63,.54-2.25,.94-4.58,1.88-6.66,.93-2.07,2.13-4.29,5.02-4.17,2.83,.12,3.84,2.41,4.87,4.44,.74,1.45,1.09,3.12,1.41,4.73,4.46,22.12,13.91,42.06,26.04,60.93,7.77,12.08,14.46,24.58,14.13,39.75-.57,26.48-19.82,45.79-46.27,45.89Z"/>
  <path class="cls-1" d="M129.16,193.51c-13.8-1.05-25.57-4.53-32.92-16.53-1.35-2.2-3.13-5.02-1.71-7.44,1.88-3.21,4.73-.71,7.03,.08,17.88,6.19,35.7,6.17,53.52-.27,2.06-.75,4.33-2.73,6.36-.43,1.92,2.18,.05,4.41-.92,6.39-6.52,13.39-18.86,16.49-31.35,18.19Z"/>
</svg>
